assets/icons/services-arrow.svg

<svg width="31" height="10" viewBox="0 0 31 10" fill="none" xmlns="http://www.w3.org/2000/svg">
<path d="M21.7236 3.18279H0.830012C0.720935 3.18279 0.612927 3.1969 0.512164 3.22432C0.411401 3.25174 0.31986 3.29193 0.242774 3.34259C0.165688 3.39325 0.104569 3.45339 0.0629123 3.51956C0.0212555 3.58574 -0.000122584 3.65666 5.28721e-07 3.72826V6.27174C5.28721e-07 6.41624 0.0874479 6.55483 0.243105 6.65701C0.398763 6.75919 0.609879 6.81659 0.830012 6.81659H21.7208V8.90746C21.7202 9.12346 21.8172 9.33473 21.9998 9.51446C22.1823 9.69419 22.442 9.83428 22.746 9.91696C23.05 9.99964 23.3846 10.0212 23.7072 9.97886C24.0299 9.93654 24.3262 9.83225 24.5584 9.67923L30.5137 5.76993C30.8251 5.56546 31 5.28819 31 4.99907C31 4.70996 30.8251 4.43269 30.5137 4.22822L24.5584 0.318919C24.3261 0.166571 24.0302 0.0628535 23.708 0.0208739C23.3859 -0.0211057 23.0521 0.000536319 22.7487 0.0830657C22.4453 0.165595 22.186 0.305307 22.0036 0.484546C21.8211 0.663785 21.7237 0.874506 21.7236 1.09008V3.18279Z" fill="white"/>
</svg>

<svg xmlns="http://www.w3.org/2000/svg" width="31" height="10" fill="none"><path fill="#fff" d="M21.724 3.183H.83q-.166 0-.318.041a1 1 0 0 0-.27.119.6.6 0 0 0-.18.177.4.4 0 0 0-.062.208v2.544c0 .144.087.283.243.385s.367.16.587.16h20.89v2.09c0 .216.097.428.28.607.182.18.442.32.746.403s.639.104.961.062a2.04 2.04 0 0 0 .851-.3l5.956-3.91c.311-.204.486-.48.486-.77 0-.289-.175-.566-.486-.77L24.558.318a2.04 2.04 0 0 0-.85-.298 2.5 2.5 0 0 0-.96.062 1.7 1.7 0 0 0-.744.402c-.183.179-.28.39-.28.605z"/></svg>
